src/assets/img/Home/twiter.svg

<?xml version="1.0" encoding="UTF-8" standalone="no"?>
<svg
   xmlns:dc="http://purl.org/dc/elements/1.1/"
   xmlns:cc="http://creativecommons.org/ns#"
   xmlns:rdf="http://www.w3.org/1999/02/22-rdf-syntax-ns#"
   xmlns:svg="http://www.w3.org/2000/svg"
   xmlns="http://www.w3.org/2000/svg"
   xmlns:sodipodi="http://sodipodi.sourceforge.net/DTD/sodipodi-0.dtd"
   xmlns:inkscape="http://www.inkscape.org/namespaces/inkscape"
   width="40"
   height="40"
   version="1.1"
   viewBox="0 0 40 40"
   id="svg6"
   sodipodi:docname="twiter.svg"
   inkscape:version="1.0.2 (1.0.2+r75+1)">
  <metadata
     id="metadata12">
    <rdf:RDF>
      <cc:Work
         rdf:about="">
        <dc:format>image/svg+xml</dc:format>
        <dc:type
           rdf:resource="http://purl.org/dc/dcmitype/StillImage" />
      </cc:Work>
    </rdf:RDF>
  </metadata>
  <defs
     id="defs10" />
  <sodipodi:namedview
     pagecolor="#ffffff"
     bordercolor="#666666"
     borderopacity="1"
     objecttolerance="10"
     gridtolerance="10"
     guidetolerance="10"
     inkscape:pageopacity="0"
     inkscape:pageshadow="2"
     inkscape:window-width="1920"
     inkscape:window-height="1052"
     id="namedview8"
     showgrid="false"
     inkscape:zoom="21.864658"
     inkscape:cx="20"
     inkscape:cy="20"
     inkscape:window-x="0"
     inkscape:window-y="1"
     inkscape:window-maximized="1"
     inkscape:current-layer="svg6" />
  <path
     id="path2"
     d="M 20 0 C 8.955 2.3684758e-15 0 8.9520469 0 19.998047 C 0 31.043447 8.955 39.998047 20 39.998047 C 31.0464 39.998047 40 31.043047 40 19.998047 C 40 8.9513469 31.046 0 20 0 z M 24.798828 10.998047 C 25.294545 11.021514 25.788462 11.128674 26.248047 11.316406 C 26.714487 11.506526 27.126582 11.76411 27.513672 12.09375 L 27.742188 12.326172 L 27.921875 12.373047 C 28.841075 12.143257 29.704702 11.818947 30.539062 11.373047 L 30.65625 11.363281 L 30.660156 11.476562 C 30.511066 11.964822 30.246434 12.417793 29.927734 12.814453 C 29.718424 13.072973 29.19801 13.715201 28.84375 13.775391 C 29.590052 13.649651 30.355787 13.459267 31.048828 13.146484 L 31.050781 13.146484 L 31.138672 13.146484 L 31.138672 13.166016 C 31.138672 13.222096 31.136968 13.358529 31.023438 13.511719 C 30.513338 14.198319 29.963197 14.811289 29.279297 15.324219 C 29.179447 15.399449 29.013672 15.476308 29.013672 15.617188 C 29.013672 19.219988 28.09355 22.817381 25.46875 25.425781 C 22.12465 28.748181 17.10845 29.651575 12.65625 28.421875 C 11.79315 28.183875 10.970277 27.850191 10.179688 27.431641 C 9.9170675 27.288021 9.6612431 27.139526 9.4082031 26.972656 L 9.3496094 26.839844 C 9.4043294 26.812484 9.4462012 26.809754 9.6445312 26.839844 C 10.890531 26.961574 12.173863 26.776944 13.351562 26.365234 C 13.999963 26.138234 15.392199 25.683676 15.792969 25.072266 L 15.822266 25.042969 C 15.659496 25.004679 15.497338 25.003923 15.335938 24.976562 C 14.126737 24.630462 12.511279 24.023775 11.761719 21.984375 C 11.715209 21.865375 11.760296 21.803505 11.884766 21.828125 C 12.880546 21.904715 13.238518 21.850037 13.585938 21.773438 C 13.390348 21.740607 13.191686 21.674256 13.009766 21.597656 C 11.485966 21.019156 10.372352 19.532981 10.169922 17.925781 C 10.145232 17.739761 10.132425 17.582496 10.140625 17.410156 L 10.308594 17.318359 C 11.092374 17.724599 11.970469 17.820311 12.042969 17.806641 C 11.848739 17.653441 11.666684 17.485229 11.490234 17.318359 C 10.168944 16.066859 9.6555906 13.520194 10.712891 11.933594 C 10.799061 11.805024 10.856988 11.805411 10.960938 11.925781 C 13.379238 14.680481 16.355466 15.96519 19.947266 16.5 L 20.039062 16.394531 C 19.944683 15.762631 19.932748 15.142075 20.085938 14.515625 C 20.244597 13.867325 20.552736 13.256681 20.972656 12.738281 C 21.378856 12.237671 21.889198 11.821618 22.460938 11.523438 C 23.031338 11.225257 23.661818 11.044353 24.304688 11.001953 C 24.469487 10.991353 24.633589 10.990225 24.798828 10.998047 z "
     style="fill:#00ffff;fill-opacity:1" />
</svg>

<svg xmlns="http://www.w3.org/2000/svg" width="40" height="40"><path d="M20 0C8.955 0 0 8.952 0 19.998c0 11.045 8.955 20 20 20 11.046 0 20-8.955 20-20C40 8.951 31.046 0 20 0zm4.799 10.998c.496.024.99.13 1.449.318.466.19.879.448 1.266.778l.228.232.18.047c.92-.23 1.783-.554 2.617-1l.117-.01.004.114a4.06 4.06 0 0 1-.732 1.337c-.21.259-.73.901-1.084.961.746-.125 1.512-.316 2.205-.629h.09v.02a.551.551 0 0 1-.116.346c-.51.686-1.06 1.3-1.744 1.812-.1.075-.265.152-.265.293 0 3.603-.92 7.2-3.545 9.809-3.344 3.322-8.36 4.226-12.813 2.996a12.224 12.224 0 0 1-2.476-.99 10.801 10.801 0 0 1-.772-.46l-.058-.132c.054-.028.096-.03.295 0 1.246.122 2.529-.063 3.707-.475.648-.227 2.04-.681 2.441-1.293l.03-.029c-.164-.038-.326-.04-.487-.066-1.21-.347-2.825-.953-3.574-2.993-.047-.119-.002-.18.123-.156.996.077 1.354.022 1.7-.055a2.647 2.647 0 0 1-.575-.175c-1.524-.579-2.638-2.065-2.84-3.672a2.778 2.778 0 0 1-.03-.516l.169-.092c.783.407 1.661.502 1.734.489a8.24 8.24 0 0 1-.553-.489c-1.321-1.251-1.834-3.798-.777-5.384.086-.129.144-.129.248-.008 2.418 2.754 5.394 4.04 8.986 4.574l.092-.105c-.094-.632-.106-1.253.047-1.88a4.562 4.562 0 0 1 .887-1.777c.406-.5.916-.916 1.488-1.215.57-.298 1.2-.479 1.844-.521.164-.01.329-.012.494-.004z" style="fill:#0ff;fill-opacity:1"/></svg>
